X: 21651
T: LEITH ASSEMBLY
O: Country dance.
%R: jig
B: W. Hamilton "Universal Tune-Book" Vol. 2 Glasgow 1846 p.165 #1
S: http://s3-eu-west-1.amazonaws.com/itma.dl.printmaterial/book_pdfs/hamiltonvol2web.pdf
Z: 2016 John Chambers <jc:trillian.mit.edu>
M: 6/8
L: 1/8
K: D
% - - - - - - - - - - - - - - - - - - - - - - - - -
|:\
d2A d2A | def ecA | B2d A2F | GEE E3 |\
d2A d2A | def ecA | B2d A2G | FDD D3 :|
|:\
FDD AFF | dAA fdd | FDD AFF | GEE E3 |\
FDD AFF | dAA fdd | B>cd A2G | FDD D3 :|
|:\
fed ecA | fed ecA | Bcd A2F | GEE E3 |\
fed ecA | fed ecA | Bcd A2A | FDD D3 :|
% - - - - - - - - - - - - - - - - - - - - - - - - -

%%sep 1 1 500
%%sep 1 1 500

